icons/numix/48x48/apps/zaz.svg

<?xml version="1.0" encoding="UTF-8" standalone="no"?>
<svg
   xmlns:dc="http://purl.org/dc/elements/1.1/"
   xmlns:cc="http://creativecommons.org/ns#"
   xmlns:rdf="http://www.w3.org/1999/02/22-rdf-syntax-ns#"
   xmlns:svg="http://www.w3.org/2000/svg"
   xmlns="http://www.w3.org/2000/svg"
   xmlns:sodipodi="http://sodipodi.sourceforge.net/DTD/sodipodi-0.dtd"
   xmlns:inkscape="http://www.inkscape.org/namespaces/inkscape"
   viewBox="0 0 48 48"
   id="svg2"
   version="1.1"
   inkscape:version="0.91 r13725"
   sodipodi:docname="zaz.svg">
  <metadata
     id="metadata40">
    <rdf:RDF>
      <cc:Work
         rdf:about="">
        <dc:format>image/svg+xml</dc:format>
        <dc:type
           rdf:resource="http://purl.org/dc/dcmitype/StillImage" />
      </cc:Work>
    </rdf:RDF>
  </metadata>
  <sodipodi:namedview
     pagecolor="#ffffff"
     bordercolor="#666666"
     borderopacity="1"
     objecttolerance="10"
     gridtolerance="10"
     guidetolerance="10"
     inkscape:pageopacity="0"
     inkscape:pageshadow="2"
     inkscape:window-width="1366"
     inkscape:window-height="713"
     id="namedview38"
     showgrid="false"
     inkscape:zoom="19.666667"
     inkscape:cx="24"
     inkscape:cy="17.898305"
     inkscape:window-x="0"
     inkscape:window-y="28"
     inkscape:window-maximized="1"
     inkscape:current-layer="svg2" />
  <defs
     id="defs4" />
  <g
     id="g18">
    <path
       d="m 36.31 5 c 5.859 4.062 9.688 10.831 9.688 18.5 c 0 12.426 -10.07 22.5 -22.5 22.5 c -7.669 0 -14.438 -3.828 -18.5 -9.688 c 1.037 1.822 2.306 3.499 3.781 4.969 c 4.085 3.712 9.514 5.969 15.469 5.969 c 12.703 0 23 -10.298 23 -23 c 0 -5.954 -2.256 -11.384 -5.969 -15.469 c -1.469 -1.475 -3.147 -2.744 -4.969 -3.781 z m 4.969 3.781 c 3.854 4.113 6.219 9.637 6.219 15.719 c 0 12.703 -10.297 23 -23 23 c -6.081 0 -11.606 -2.364 -15.719 -6.219 c 4.16 4.144 9.883 6.719 16.219 6.719 c 12.703 0 23 -10.298 23 -23 c 0 -6.335 -2.575 -12.06 -6.719 -16.219 z"
       opacity="0.05"
       id="path20" />
    <path
       d="m 41.28 8.781 c 3.712 4.085 5.969 9.514 5.969 15.469 c 0 12.703 -10.297 23 -23 23 c -5.954 0 -11.384 -2.256 -15.469 -5.969 c 4.113 3.854 9.637 6.219 15.719 6.219 c 12.703 0 23 -10.298 23 -23 c 0 -6.081 -2.364 -11.606 -6.219 -15.719 z"
       opacity="0.1"
       id="path22" />
    <path
       d="m 31.25 2.375 c 8.615 3.154 14.75 11.417 14.75 21.13 c 0 12.426 -10.07 22.5 -22.5 22.5 c -9.708 0 -17.971 -6.135 -21.12 -14.75 a 23 23 0 0 0 44.875 -7 a 23 23 0 0 0 -16 -21.875 z"
       opacity="0.2"
       id="path24" />
  </g>
  <path
     d="M 11.801169,20.172949 C 13.004169,24.160949 21.961,24.937 24.004,24 33.142462,8.1099469 43.504346,27.836291 42.817,37.219 45.448,33.479 47.005,28.921 47.005,24 47.005,17.315 44.152,11.296 39.599,7.094 39.578,7.084 39.558,7.072 39.536,7.063 23.382796,-1.4987023 10.780419,10.403278 11.801169,20.172949 Z"
     id="path26"
     inkscape:connector-curvature="0"
     style="fill:#b0c6de;fill-opacity:1;fill-rule:evenodd;stroke:none"
     sodipodi:nodetypes="cccsccc" />
  <path
     d="M 24,1 C 15.535,1 8.149,5.564 4.156,12.375 2.9465254,18.695695 5.2127458,25.839661 9.6787458,28.404661 15.369746,31.041661 23.05861,28.627508 24,24 21.957,24.938 15.391,23.145 14.187,19.156 12.925,9.886 20.164,6.226 28.812,5.281 32.669,4.86 36.292,5.552 39.562,7.062 35.467,3.297 30.002,1.002 23.999,1.002 Z m 8.906,17.03 c 0.193,0.05 0.396,0.119 0.594,0.188 -0.204,-0.07 -0.395,-0.138 -0.594,-0.188 z"
     id="path28"
     inkscape:connector-curvature="0"
     style="fill:#ed8e68;fill-opacity:1;fill-rule:evenodd;stroke:none"
     sodipodi:nodetypes="cccccccccccc" />
  <path
     d="m 31.31,17.813 c -4.04,-0.02 -6.711,3.918 -7.313,6.188 3.217842,8.174473 -5.919243,16.501524 -15.562,16.942 4.095,3.765 9.56,6.06 15.563,6.06 7.782,0 14.651,-3.866 18.813,-9.781 0.763,-7.928 -3.521,-15.823 -8.5,-18.688 -1.066,-0.496 -2.07,-0.715 -3,-0.719 z"
     id="path30"
     inkscape:connector-curvature="0"
     style="fill:#86dd95;fill-opacity:1;fill-rule:nonzero;stroke:none"
     sodipodi:nodetypes="cccscccc" />
  <path
     d="M 4.156,12.375 C 2.157,15.784 1,19.762 1,24 c 0,6.701 2.865,12.734 7.438,16.938 3.271,1.511 6.892,2.202 10.75,1.781 8.648,-0.945 14.762,-7.879 13.5,-17.16 -0.08411,-0.24704 -0.196655,-0.48149 -0.281,-0.688 -1.692226,-2.38436 -6.331004,-2.740571 -8.346,-0.907 0.008,-0.004 -0.027,-0.004 -0.031,0 -0.008,0.004 -0.02,0.027 -0.031,0.031 C 23.265,26.788 16.28,29.257 10.593,26.62 6.127,24.057 3.456,18.59 4.155,12.37 Z"
     id="path32"
     inkscape:connector-curvature="0"
     style="fill:#f3f275;fill-opacity:1;fill-rule:nonzero;stroke:none"
     sodipodi:nodetypes="cscccccccccc" />
  <g
     id="g34">
    <path
       d="m 40.03 7.531 c 3.712 4.084 5.969 9.514 5.969 15.469 0 12.703 -10.297 23 -23 23 c -5.954 0 -11.384 -2.256 -15.469 -5.969 4.178 4.291 10.01 6.969 16.469 6.969 c 12.703 0 23 -10.298 23 -23 0 -6.462 -2.677 -12.291 -6.969 -16.469 z"
       opacity="0.1"
       id="path36" />
  </g>
</svg>

<svg xmlns="http://www.w3.org/2000/svg" viewBox="0 0 48 48"><defs><clipPath><g transform="translate(0,-1004.3622)"><path d="m -24 13 c 0 1.105 -0.672 2 -1.5 2 -0.828 0 -1.5 -0.895 -1.5 -2 0 -1.105 0.672 -2 1.5 -2 0.828 0 1.5 0.895 1.5 2 z" transform="matrix(15.333333,0,0,11.5,414.99999,878.8622)" fill="#1890d0"/></g></clipPath><clipPath><g transform="translate(0,-1004.3622)"><path d="m -24 13 c 0 1.105 -0.672 2 -1.5 2 -0.828 0 -1.5 -0.895 -1.5 -2 0 -1.105 0.672 -2 1.5 -2 0.828 0 1.5 0.895 1.5 2 z" transform="matrix(15.333333,0,0,11.5,414.99999,878.8622)" fill="#1890d0"/></g></clipPath></defs><g><path d="m 36.31 5 c 5.859 4.062 9.688 10.831 9.688 18.5 c 0 12.426 -10.07 22.5 -22.5 22.5 c -7.669 0 -14.438 -3.828 -18.5 -9.688 c 1.037 1.822 2.306 3.499 3.781 4.969 c 4.085 3.712 9.514 5.969 15.469 5.969 c 12.703 0 23 -10.298 23 -23 c 0 -5.954 -2.256 -11.384 -5.969 -15.469 c -1.469 -1.475 -3.147 -2.744 -4.969 -3.781 z m 4.969 3.781 c 3.854 4.113 6.219 9.637 6.219 15.719 c 0 12.703 -10.297 23 -23 23 c -6.081 0 -11.606 -2.364 -15.719 -6.219 c 4.16 4.144 9.883 6.719 16.219 6.719 c 12.703 0 23 -10.298 23 -23 c 0 -6.335 -2.575 -12.06 -6.719 -16.219 z" opacity="0.05"/><path d="m 41.28 8.781 c 3.712 4.085 5.969 9.514 5.969 15.469 c 0 12.703 -10.297 23 -23 23 c -5.954 0 -11.384 -2.256 -15.469 -5.969 c 4.113 3.854 9.637 6.219 15.719 6.219 c 12.703 0 23 -10.298 23 -23 c 0 -6.081 -2.364 -11.606 -6.219 -15.719 z" opacity="0.1"/><path d="m 31.25 2.375 c 8.615 3.154 14.75 11.417 14.75 21.13 c 0 12.426 -10.07 22.5 -22.5 22.5 c -9.708 0 -17.971 -6.135 -21.12 -14.75 a 23 23 0 0 0 44.875 -7 a 23 23 0 0 0 -16 -21.875 z" opacity="0.2"/></g><path d="m 30.16 5.156 c -0.446 0.021 -0.885 0.074 -1.344 0.125 c -8.648 0.945 -15.887 4.605 -14.625 13.875 c 1.203 3.988 7.77 5.781 9.813 4.844 c 0.738 -2.797 4.618 -8.105 10.313 -5.469 c 4.982 2.859 9.268 10.754 8.5 18.688 c 2.631 -3.74 4.188 -8.298 4.188 -13.219 c 0 -6.685 -2.853 -12.704 -7.406 -16.906 c -0.021 -0.01 -0.041 -0.022 -0.063 -0.031 c -2.491 -1.145 -5.188 -1.835 -8.03 -1.906 c -0.444 -0.011 -0.897 -0.021 -1.344 0 z" fill="#b0c6de" fill-rule="evenodd" stroke="none" fill-opacity="1"/><path d="m 24 1 c -8.465 0 -15.851 4.564 -19.844 11.375 c -0.701 6.219 1.972 11.685 6.438 14.25 c 5.691 2.637 12.668 0.172 13.406 -2.625 c -2.043 0.938 -8.609 -0.855 -9.813 -4.844 c -1.262 -9.27 5.977 -12.93 14.625 -13.875 c 3.857 -0.421 7.48 0.271 10.75 1.781 c -4.095 -3.765 -9.56 -6.06 -15.563 -6.06 z m 8.906 17.03 c 0.193 0.05 0.396 0.119 0.594 0.188 c -0.204 -0.07 -0.395 -0.138 -0.594 -0.188 z" fill="#ed8e68" fill-rule="evenodd" stroke="none" fill-opacity="1"/><path d="m 31.31 17.813 c -4.04 -0.02 -6.711 3.918 -7.313 6.188 c 0.348 -0.117 7.378 -2.032 8.688 1.563 c 1.262 9.273 -4.852 16.211 -13.5 17.16 c -3.857 0.421 -7.479 -0.271 -10.75 -1.781 c 4.095 3.765 9.56 6.06 15.563 6.06 c 7.782 0 14.651 -3.866 18.813 -9.781 c 0.763 -7.928 -3.521 -15.823 -8.5 -18.688 c -1.066 -0.496 -2.07 -0.715 -3 -0.719 z" fill="#86dd95" fill-rule="nonzero" stroke="none" fill-opacity="1"/><path d="m 4.156 12.375 c -1.999 3.409 -3.156 7.387 -3.156 11.625 c 0 6.701 2.865 12.734 7.438 16.938 c 3.271 1.511 6.892 2.202 10.75 1.781 c 8.648 -0.945 14.762 -7.879 13.5 -17.16 c -0.066 -0.211 -0.156 -0.41 -0.25 -0.594 c -0.02 -0.035 -0.012 -0.063 -0.031 -0.094 c -0.09 -0.152 -0.206 -0.273 -0.313 -0.406 c -0.039 -0.047 -0.063 -0.113 -0.094 -0.156 c -0.125 -0.133 -0.273 -0.262 -0.406 -0.375 c -0.039 -0.027 -0.066 -0.066 -0.094 -0.094 c -0.102 -0.066 -0.224 -0.098 -0.313 -0.156 c -0.102 -0.059 -0.2 -0.137 -0.313 -0.188 c -0.074 -0.035 -0.168 -0.063 -0.25 -0.094 c -0.145 -0.059 -0.273 -0.109 -0.438 -0.156 c -0.051 -0.016 -0.105 -0.047 -0.156 -0.063 c -0.285 -0.078 -0.602 -0.117 -0.906 -0.156 c -0.145 -0.02 -0.313 -0.02 -0.469 -0.031 c -0.332 -0.027 -0.656 -0.066 -1 -0.063 c -0.426 0.004 -0.855 0.047 -1.281 0.094 c -0.418 0.043 -0.82 0.082 -1.219 0.156 c -0.754 0.305 -0.832 0.539 -1.094 0.781 c 0.008 -0.004 -0.027 -0.004 -0.031 0 c -0.008 0.004 -0.02 0.027 -0.031 0.031 c -0.734 2.793 -7.719 5.262 -13.406 2.625 c -4.466 -2.563 -7.137 -8.03 -6.438 -14.25 z" fill="#f3f275" fill-rule="nonzero" stroke="none" fill-opacity="1"/><g><path d="m 40.03 7.531 c 3.712 4.084 5.969 9.514 5.969 15.469 0 12.703 -10.297 23 -23 23 c -5.954 0 -11.384 -2.256 -15.469 -5.969 4.178 4.291 10.01 6.969 16.469 6.969 c 12.703 0 23 -10.298 23 -23 0 -6.462 -2.677 -12.291 -6.969 -16.469 z" opacity="0.1"/></g></svg>
